wp-content/themes/sorted-by-anna/assets/img/svg-src/symbol/icon-instagram.svg

<?xml version="1.0" encoding="UTF-8" standalone="no"?>
<svg width="24px" height="24px" viewBox="0 0 24 24" version="1.1" xmlns="http://www.w3.org/2000/svg" xmlns:xlink="http://www.w3.org/1999/xlink">
    <!-- Generator: Sketch 45 (43475) - http://www.bohemiancoding.com/sketch -->
    <title>Combined Shape</title>
    <desc>Created with Sketch.</desc>
    <defs></defs>
    <g id="Page-1" stroke="none" stroke-width="1" fill="none" fill-rule="evenodd">
        <g id="Home-Page" transform="translate(-175.000000, -7333.000000)" fill="#FF7676">
            <g id="Stacked-Group-2" transform="translate(175.000000, 7299.000000)">
                <g id="Stacked-Group">
                    <g>
                        <g id="instagram" transform="translate(0.000000, 34.000000)">
                            <g id="icon">
                                <path d="M12,24 C5.372583,24 0,18.627417 0,12 C0,5.372583 5.372583,0 12,0 C18.627417,0 24,5.372583 24,12 C24,18.627417 18.627417,24 12,24 Z M11.9978056,5.00441667 C10.0973056,5.00441667 9.859,5.01247222 9.11261111,5.04652778 C8.36777778,5.0805 7.85908333,5.19880556 7.41397222,5.37180556 C6.95380556,5.55061111 6.56355556,5.78988889 6.1745,6.17891667 C5.78547222,6.56797222 5.54619444,6.95822222 5.36738889,7.41838889 C5.19438889,7.8635 5.07608333,8.37219444 5.04211111,9.11702778 C5.00805556,9.86341667 5,10.1017222 5,12.0022222 C5,13.9026944 5.00805556,14.141 5.04211111,14.8873889 C5.07608333,15.6322222 5.19438889,16.1409167 5.36738889,16.5860278 C5.54619444,17.0461944 5.78547222,17.4364444 6.1745,17.8255 C6.56355556,18.2145278 6.95380556,18.4538056 7.41397222,18.6326389 C7.85908333,18.8056111 8.36777778,18.9239167 9.11261111,18.9578889 C9.859,18.9919444 10.0973056,19 11.9978056,19 C13.8982778,19 14.1365833,18.9919444 14.8829722,18.9578889 C15.6278056,18.9239167 16.1365,18.8056111 16.5816111,18.6326389 C17.0417778,18.4538056 17.4320278,18.2145278 17.8210833,17.8255 C18.2101111,17.4364444 18.4493889,17.0461944 18.6282222,16.5860278 C18.8011944,16.1409167 18.9195,15.6322222 18.9534722,14.8873889 C18.9875278,14.141 18.9955833,13.9026944 18.9955833,12.0022222 C18.9955833,10.1017222 18.9875278,9.86341667 18.9534722,9.11702778 C18.9195,8.37219444 18.8011944,7.8635 18.6282222,7.41838889 C18.4493889,6.95822222 18.2101111,6.56797222 17.8210833,6.17891667 C17.4320278,5.78988889 17.0417778,5.55061111 16.5816111,5.37180556 C16.1365,5.19880556 15.6278056,5.0805 14.8829722,5.04652778 C14.1365833,5.01247222 13.8982778,5.00441667 11.9978056,5.00441667 Z M11.9978056,6.26527778 C13.8662778,6.26527778 14.0876111,6.27241667 14.8255,6.30608333 C15.5077778,6.33719444 15.8783056,6.45119444 16.1248889,6.54702778 C16.4515278,6.67397222 16.6846389,6.82561111 16.9295,7.0705 C17.1743889,7.31536111 17.3260278,7.54847222 17.4529722,7.87511111 C17.5488056,8.12169444 17.6628056,8.49222222 17.6939167,9.1745 C17.7275833,9.91238889 17.7347222,10.1337222 17.7347222,12.0022222 C17.7347222,13.8706944 17.7275833,14.0920278 17.6939167,14.8299167 C17.6628056,15.5121944 17.5488056,15.8827222 17.4529722,16.1293056 C17.3260278,16.4559444 17.1743889,16.6890556 16.9295,16.9339167 C16.6846389,17.1788056 16.4515278,17.3304444 16.1248889,17.4573889 C15.8783056,17.5532222 15.5077778,17.6672222 14.8255,17.6983333 C14.0877222,17.732 13.8664167,17.7391389 11.9978056,17.7391389 C10.1291667,17.7391389 9.90788889,17.732 9.17008333,17.6983333 C8.48780556,17.6672222 8.11727778,17.5532222 7.87069444,17.4573889 C7.54405556,17.3304444 7.31094444,17.1788056 7.06608333,16.9339167 C6.82122222,16.6890556 6.66955556,16.4559444 6.54261111,16.1293056 C6.44677778,15.8827222 6.33277778,15.5121944 6.30166667,14.8299167 C6.268,14.0920278 6.26086111,13.8706944 6.26086111,12.0022222 C6.26086111,10.1337222 6.268,9.91238889 6.30166667,9.1745 C6.33277778,8.49222222 6.44677778,8.12169444 6.54261111,7.87511111 C6.66955556,7.54847222 6.82119444,7.31536111 7.06608333,7.0705 C7.31094444,6.82561111 7.54405556,6.67397222 7.87069444,6.54702778 C8.11727778,6.45119444 8.48780556,6.33719444 9.17008333,6.30608333 C9.90797222,6.27241667 10.1293056,6.26527778 11.9978056,6.26527778 Z M11.9978056,14.3348056 C10.7095278,14.3348056 9.66519444,13.2904722 9.66519444,12.0022222 C9.66519444,10.7139444 10.7095278,9.66961111 11.9978056,9.66961111 C13.2860556,9.66961111 14.3303889,10.7139444 14.3303889,12.0022222 C14.3303889,13.2904722 13.2860556,14.3348056 11.9978056,14.3348056 Z M11.9978056,8.40875 C10.0131667,8.40875 8.40433333,10.0175833 8.40433333,12.0022222 C8.40433333,13.9868333 10.0131667,15.5956667 11.9978056,15.5956667 C13.9824167,15.5956667 15.59125,13.9868333 15.59125,12.0022222 C15.59125,10.0175833 13.9824167,8.40875 11.9978056,8.40875 Z M16.5729722,8.26677778 C16.5729722,7.803 16.197,7.42702778 15.7332222,7.42702778 C15.2694722,7.42702778 14.8935,7.803 14.8935,8.26677778 C14.8935,8.73055556 15.2694722,9.1065 15.7332222,9.1065 C16.197,9.1065 16.5729722,8.73055556 16.5729722,8.26677778 Z" id="Combined-Shape"></path>
                            </g>
                        </g>
                    </g>
                </g>
            </g>
        </g>
    </g>
</svg>

<svg width="24" height="24" viewBox="0 0 24 24" xmlns="http://www.w3.org/2000/svg"><title>Follow @sortedbyanna on Instagram</title><path d="M12 24C5.373 24 0 18.627 0 12S5.373 0 12 0s12 5.373 12 12-5.373 12-12 12zm-.002-18.996c-1.9 0-2.14.008-2.885.043-.745.034-1.254.152-1.7.325-.46.18-.85.418-1.24.807-.388.388-.627.778-.806 1.238-.173.446-.29.954-.325 1.7C5.008 9.862 5 10.1 5 12s.008 2.14.042 2.885c.034.745.152 1.254.325 1.7.18.46.418.85.808 1.24.39.388.78.627 1.24.806.444.173.953.29 1.698.325.746.034.984.042 2.885.042 1.9 0 2.14-.008 2.885-.042.745-.034 1.254-.152 1.7-.325.46-.18.85-.418 1.238-.807.39-.39.63-.78.808-1.24.173-.445.29-.954.325-1.7.035-.745.043-.983.043-2.884 0-1.9-.008-2.14-.043-2.885-.034-.745-.152-1.254-.325-1.7-.18-.46-.418-.85-.807-1.238-.388-.39-.778-.63-1.238-.808-.445-.173-.954-.292-1.7-.325-.745-.035-.984-.043-2.884-.043zm0 1.26c1.868 0 2.09.008 2.828.042.682.03 1.052.145 1.3.24.326.128.56.28.803.524.244.245.396.478.523.805.096.247.21.617.24 1.3.035.737.042.96.042 2.827 0 1.87-.007 2.09-.04 2.828-.032.682-.146 1.053-.242 1.3-.127.326-.28.56-.523.804-.245.245-.478.396-.805.523-.247.096-.617.21-1.3.24-.737.035-.96.042-2.827.042-1.87 0-2.09-.008-2.828-.042-.682-.03-1.053-.145-1.3-.24-.326-.128-.56-.28-.804-.524-.245-.245-.396-.478-.523-.805-.096-.247-.21-.618-.24-1.3-.035-.738-.042-.96-.042-2.828 0-1.868.008-2.09.042-2.828.03-.682.145-1.052.24-1.3.128-.326.28-.56.524-.803.245-.244.478-.396.805-.523.247-.096.618-.21 1.3-.24.738-.035.96-.042 2.828-.042zm0 8.07c-1.288 0-2.333-1.044-2.333-2.332 0-1.288 1.045-2.332 2.333-2.332 1.288 0 2.332 1.044 2.332 2.332 0 1.288-1.044 2.333-2.332 2.333zm0-5.925c-1.985 0-3.594 1.608-3.594 3.592 0 1.985 1.61 3.594 3.594 3.594 1.984 0 3.593-1.61 3.593-3.594 0-1.984-1.608-3.593-3.592-3.593zm4.575-.143c0-.464-.376-.84-.84-.84-.464 0-.84.376-.84.84 0 .464.376.84.84.84.464 0 .84-.376.84-.84z" fill="#FF7676" fill-rule="evenodd"/></svg>
